cssgg/remove-r.svg

<svg
  width="24"
  height="24"
  viewBox="0 0 24 24"
  fill="none"
  xmlns="http://www.w3.org/2000/svg"
>
  <path
    d="M8 11C7.44772 11 7 11.4477 7 12C7 12.5523 7.44772 13 8 13H16C16.5523 13 17 12.5523 17 12C17 11.4477 16.5523 11 16 11H8Z"
    fill="currentColor"
  />
  <path
    fill-rule="evenodd"
    clip-rule="evenodd"
    d="M1 5C1 2.79086 2.79086 1 5 1H19C21.2091 1 23 2.79086 23 5V19C23 21.2091 21.2091 23 19 23H5C2.79086 23 1 21.2091 1 19V5ZM5 3H19C20.1046 3 21 3.89543 21 5V19C21 20.1046 20.1046 21 19 21H5C3.89543 21 3 20.1046 3 19V5C3 3.89543 3.89543 3 5 3Z"
    fill="currentColor"
  />
</svg>

<svg viewBox="0 0 24 24" xmlns="http://www.w3.org/2000/svg"><g><path d="M8 11c-.56 0-1 .44-1 1 0 .55.44 1 1 1h8c.55 0 1-.45 1-1 0-.56-.45-1-1-1H8Z"/><path fill-rule="evenodd" d="M1 5c0-2.21 1.79-4 4-4h14c2.2 0 4 1.79 4 4v14c0 2.2-1.8 4-4 4H5c-2.21 0-4-1.8-4-4V5Zm4-2h14c1.1 0 2 .89 2 2v14c0 1.1-.9 2-2 2H5c-1.11 0-2-.9-2-2V5c0-1.11.89-2 2-2Z"/></g></svg>
